src/assets/filled/JavaScript.svg

<svg width="24" height="24" viewBox="0 0 24 24"  xmlns="http://www.w3.org/2000/svg">
<path d="M19.8799 2H4.10983C3.50983 2 3.04984 2.52 3.11984 3.11L4.91983 19.33C4.95983 19.73 5.24986 20.07 5.63986 20.18L11.7198 21.92C11.8998 21.97 12.0899 21.97 12.2699 21.92L18.3498 20.18C18.7398 20.07 19.0199 19.73 19.0699 19.33L20.8698 3.11C20.9398 2.52 20.4799 2 19.8799 2ZM11.3698 15.99C11.3698 16.23 11.2599 16.45 11.0699 16.59C10.9399 16.69 10.7798 16.74 10.6198 16.74C10.5498 16.74 10.4798 16.73 10.4098 16.71L7.28983 15.81C6.88983 15.69 6.65988 15.28 6.77988 14.88C6.88988 14.48 7.30987 14.26 7.70987 14.37L9.86984 14.99V7.00999C9.86984 6.59999 10.2098 6.25999 10.6198 6.25999C11.0298 6.25999 11.3698 6.59999 11.3698 7.00999V15.99ZM17.2498 15.1C17.2498 15.44 17.0198 15.74 16.6798 15.83L13.0799 16.73C13.0199 16.75 12.9599 16.75 12.8999 16.75C12.5599 16.75 12.2598 16.52 12.1698 16.18C12.0698 15.78 12.3098 15.37 12.7198 15.27L15.7498 14.51V12.81L13.4599 13.14C13.2399 13.17 13.0298 13.11 12.8598 12.96C12.6998 12.82 12.5998 12.61 12.5998 12.39V7.44C12.5998 7.07 12.8698 6.75 13.2398 6.7L16.3899 6.25C16.7999 6.19 17.1798 6.48 17.2398 6.89C17.2998 7.3 17.0098 7.68001 16.5998 7.74001L14.0899 8.10001V11.53L16.3799 11.2C16.5999 11.17 16.8098 11.23 16.9798 11.38C17.1398 11.52 17.2398 11.73 17.2398 11.95V15.1H17.2498Z" />
</svg>

<?xml version="1.0" encoding="UTF-8"?>
<svg width="24" height="24" viewBox="0 0 24 24" xmlns="http://www.w3.org/2000/svg">
 <path d="m19.88 2h-15.77c-0.6 0-1.06 0.52-0.98999 1.11l1.8 16.22c0.04 0.4 0.33003 0.74 0.72003 0.85l6.0799 1.74c0.18 0.05 0.3701 0.05 0.5501 0l6.0799-1.74c0.39-0.11 0.6701-0.45 0.7201-0.85l1.7999-16.22c0.07-0.59-0.3899-1.11-0.9899-1.11zm-8.5101 13.99c0 0.24-0.1099 0.46-0.2999 0.6-0.13 0.1-0.2901 0.15-0.4501 0.15-0.07 0-0.14-0.01-0.21-0.03l-3.12-0.9c-0.4-0.12-0.62995-0.53-0.50995-0.93 0.11-0.4 0.52999-0.62 0.92999-0.51l2.16 0.62v-7.98c0-0.41 0.33996-0.75 0.74996-0.75s0.75 0.34 0.75 0.75v8.98zm5.88-0.89c0 0.34-0.23 0.64-0.57 0.73l-3.5999 0.9c-0.06 0.02-0.12 0.02-0.18 0.02-0.34 0-0.6401-0.23-0.7301-0.57-0.1-0.4 0.14-0.81 0.55-0.91l3.03-0.76v-1.7l-2.2899 0.33c-0.22 0.03-0.4301-0.03-0.6001-0.18-0.16-0.14-0.26-0.35-0.26-0.57v-4.95c0-0.37 0.27-0.69 0.64-0.74l3.1501-0.45c0.41-0.06 0.7899 0.23 0.8499 0.64s-0.23 0.79001-0.64 0.85001l-2.5099 0.36v3.43l2.29-0.33c0.22-0.03 0.4299 0.03 0.5999 0.18 0.16 0.14 0.26 0.35 0.26 0.57v3.15h0.01z"/>
</svg>
